symbols/web/desktop_windows/materialsymbolsoutlined/desktop_windows_wght700grad200_40px.svg

<svg xmlns="http://www.w3.org/2000/svg" height="40" width="40"><path d="M13.167 38.458V34h3.5v-3.875H6.542q-1.792 0-3.104-1.313-1.313-1.312-1.313-3.104V7.083q0-1.791 1.313-3.104Q4.75 2.667 6.542 2.667H33.5q1.833 0 3.146 1.312 1.312 1.313 1.312 3.104v18.625q0 1.792-1.312 3.104-1.313 1.313-3.146 1.313H23.375V34h3.5v4.458Zm-6.625-12.75H33.5V7.083H6.542v18.625Zm0 0V7.083v18.625Z"/></svg>

<svg xmlns="http://www.w3.org/2000/svg" height="40" width="40"><path d="M13.167 38.458V34H16.667V30.125H6.542Q4.75 30.125 3.438 28.812Q2.125 27.5 2.125 25.708V7.083Q2.125 5.292 3.438 3.979Q4.75 2.667 6.542 2.667H33.5Q35.333 2.667 36.646 3.979Q37.958 5.292 37.958 7.083V25.708Q37.958 27.5 36.646 28.812Q35.333 30.125 33.5 30.125H23.375V34H26.875V38.458ZM6.542 25.708H33.5Q33.5 25.708 33.5 25.708Q33.5 25.708 33.5 25.708V7.083Q33.5 7.083 33.5 7.083Q33.5 7.083 33.5 7.083H6.542Q6.542 7.083 6.542 7.083Q6.542 7.083 6.542 7.083V25.708Q6.542 25.708 6.542 25.708Q6.542 25.708 6.542 25.708ZM6.542 25.708Q6.542 25.708 6.542 25.708Q6.542 25.708 6.542 25.708V7.083Q6.542 7.083 6.542 7.083Q6.542 7.083 6.542 7.083Q6.542 7.083 6.542 7.083Q6.542 7.083 6.542 7.083V25.708Q6.542 25.708 6.542 25.708Q6.542 25.708 6.542 25.708Z"/></svg>
